src/pos-icons/format-columns.svg

<svg height="24" viewBox="0 0 24 24" width="24" xmlns="http://www.w3.org/2000/svg"><path d="m3 3h8v2h-8zm10 0h8v2h-8zm-10 4h8v2h-8zm10 0h8v2h-8zm-10 4h8v2h-8zm10 0h8v2h-8zm-10 4h8v2h-8zm10 0h8v2h-8zm-10 4h8v2h-8zm10 0h8v2h-8z"/></svg>

<?xml version="1.0" encoding="UTF-8"?><!DOCTYPE svg PUBLIC "-//W3C//DTD SVG 1.1//EN" "http://www.w3.org/Graphics/SVG/1.1/DTD/svg11.dtd"><svg xmlns="http://www.w3.org/2000/svg" xmlns:xlink="http://www.w3.org/1999/xlink" version="1.1" id="mdi-format-columns" width="24" height="24" viewBox="0 0 24 24"><path d="M3,3H11V5H3V3M13,3H21V5H13V3M3,7H11V9H3V7M13,7H21V9H13V7M3,11H11V13H3V11M13,11H21V13H13V11M3,15H11V17H3V15M13,15H21V17H13V15M3,19H11V21H3V19M13,19H21V21H13V19Z" /></svg>
